!!!COM: Bach, Johann Sebastian
!!!OTL: 124. Auf, auf, mein Herz, und du mein ganzer Sinn
!!!ONM: No. 124
!!!OCL: Erk
!!!SCA: BWV 268
!!!YOE: Riemenschneider, Albert
!!!OPR: 371 Harmonized Chorales and 69 Chorale Melodies with Figured Bass
!!!OPT: Bach Chorale Harmonizations
**harm	**root	**kern	**kern	**kern	**kern
!	!	!bass	!tenor	!alto	!sprno
*Iorgan	*Iorgan	*Iorgan	*Iorgan	*Iorgan	*Iorgan
*k[f#c#g#]	*k[f#c#g#]	*k[f#c#g#]	*k[f#c#g#]	*k[f#c#g#]	*k[f#c#g#]
*A:	*A:	*A:	*A:	*A:	*A:
*met(c)	*met(c)	*met(c)	*met(c)	*met(c)	*met(c)
*M4/4	*M4/4	*M4/4	*M4/4	*M4/4	*M4/4
*MM60	*MM60	*MM60	*MM60	*MM60	*MM60
I	4GG	8A	4e	4a	4cc#
.	.	8G#	.	.	.
=1	=1	=1	=1	=1	=1
I	8GG	4A	8e	8a	4cc#
vib	8EE	.	8f#	8f#	.
Vb/vi	4BB	4E#	4g#	8cc#	4cc#
.	.	.	.	8b	.
vi;	4EE;	4F#;	4f#;	4a;	4cc#;
iib	4AA	4D	4f#	8b	4ff#
.	.	.	.	8a	.
=2	=2	=2	=2	=2	=2
V7d	4.DD	4.D	8B	8g#	4ee
.	.	.	8A	8f#	.
.	.	.	8B	8g#	4ee
viib/ii	8GG#	8C#	8c#	8a#	.
ii	4AA	8BB	8d	4b	4dd
.	.	8AA#	8c#	.	.
ii	4AA	4BB	4B	8f#	4dd
.	.	.	.	8g#	.
=3	=3	=3	=3	=3	=3
I;	4GG;	4AA;	4e;	4a;	4cc#;
I	4GG	4A	4c#	4e	4a
Vb	4DD	8G#	4B	8e	4b
.	.	8F#	.	8f#	.
V	4DD	4E	8e	8g#	4b
.	.	.	8d	8f#	.
=4	=4	=4	=4	=4	=4
I	4GG	8A	8c#	4e	4cc#
.	.	8G#	8B	.	.
IVb	4CC	4F#	4A	8a	4dd
.	.	.	.	8f#	.
V	8DD	4E	8B	8g#	8ee
V7	8DD	.	8G#	8b	8dd
vi	8EE	8F#	8A	[4a	4cc#
Ic	8GG	8E	8c#	.	.
=5	=5	=5	=5	=5	=5
ii7b	8AA	8D	8f#	8a]	4b
ii	8AA	8BB	8d	16g#	.
.	.	.	.	16f#	.
V	4DD	4E	8B	4g#	4b
.	.	.	16e	.	.
.	.	.	16d	.	.
I;	4GG;	4AA;	4c#;	4e;	4a;
V7d/V	4AA	4A	4d#	4f#	4b
=6	=6	=6	=6	=6	=6
!!linebreak: 2
Vb	8DD	8G#	8e	8g#	4b
V7c/V	8AA	8F#	8d#	8a	.
V	8DD	8E	8e	8g#	4b
Vb/V	8AA	8D#	8f#	8f#	.
V;	4DD;	4E;	4e;	4g#;	4b;
Vb/vi	4BB	4E#	4c#	[4g#	8cc#
.	.	.	.	.	8b
=7	=7	=7	=7	=7	=7
vi	4EE	8F#	4c#	4g#]	4a
.	.	8G#	.	.	.
vib	4EE	8A	4c#	[4f#	4a
.	.	8F#	.	.	.
Vb	8DD	8D#	8B	8f#]	4b
viio/vi	8DD#	8E#	8G#	8g#	.
vi	8EE	8F#	4A	8c#	4a
IV	8CC	8D	.	[8f#	.
=8	=8	=8	=8	=8	=8
viio7b	4FF#	4BB	4d	8f#]	2g#
.	.	.	.	8e#	.
V7b/V/vi	4FF#	4BB#	4d#	8f#	.
.	.	.	.	8d#	.
V/vi;	4BB;	4C#;	4c#;	4e#;	4g#;
Vb/vi	4BB	4E#	8c#	4c#	4g#
.	.	.	8B	.	.
=9	=9	=9	=9	=9	=9
vi	8EE	8F#	8A	4c#	4a
V7c/IV	8GG	8E	8G#	.	.
IV	8CC	8D	8A	8f#	4a
Ib	8GG	8C#	8c#	8e	.
ii	4AA	8BB	[4d	8f#	4b
.	.	8AA	.	16g#	.
.	.	.	.	16a	.
viio	8FF#	8GG#	8d]	8b	4b
V	8DD	8EE	16e	8g#	.
.	.	.	16d	.	.
=10	=10	=10	=10	=10	=10
I	4GG	8AA	[4c#	8e	4cc#
.	.	8A	.	16f#	.
.	.	.	.	16g#	.
IV7b	8CC	8F#	8c#]	8a	4dd
viiob	8FF#	8B	16B	16g#	.
.	.	.	16A	16f#	.
Vb	8DD	8G#	8B	8g#	8ee
V7	8DD	8E	8g#	4b	8dd
I	8GG	8A	8e	.	4cc#
vi	8EE	8F#	8f#	8a	.
=11	=11	=11	=11	=11	=11
ii7b	4AA	8D	8f#	4a	2b
.	.	8BB	8d	.	.
V	4DD	4E	8B	4g#	.
.	.	.	16e	.	.
.	.	.	16d	.	.
I;	4GG;	4AA;	4c#;	4e;	4a;
==	==	==	==	==	==
*-	*-	*-	*-	*-	*-
!!!CDT: 1685/3//-1750/7/28
!!!OCY: Deutschland
!!!AGN: chorale
!!!AST: Baroque
!!!AIN: vox
!!!YOY: 1941
!!!PPP: New York; London
!!!PPR: G. Schirmer
!!!ENC: David Huron
!!!EED: David Huron
!!!YEN: United States of America
!!!YER: 1992
!!!YEC: Copyright 1992 David Huron
!!!YEM: Rights to all derivative electronic formats reserved.
!!!YER: March 20, 1996
!!!AMT: simple quadruple
!!!EEV: 1.1
!!chor2scor: -l 2 -s 0.6 -o %b.pmx
